X: 33350
T: Queen Of Rangoon, The
R: reel
M: 4/4
K: Bminor
|:e|B2ef dB~B2|de2B dB~B2|edBA EFED|EFAB edB2-|
BBef dz~B2|e3B dB~B2|edBA EFED|EFAF B3:|
|:c|dBGF G2 B/c/d|ecAF ~A3G|F2BF ~B3d|cBzd cBBc|
dBGF G2 B/c/d|ecAF ~A3G|F2BF ~B3d|cdec B3:|

